X: 13222
T: Fisher's
R: hornpipe
M: 4/4
K: Dmajor
|:dAFD GBAG|FEDF GBAG|FDFD GEGE|FDFD EABc|
dAFD GBAG|FAFA GBAG|FdBg fdec|d2 d2 d4:|
|:ecAc ecge|fdAd fdaf|ecAc ecge|edcB A4|
BGDG BGdB|AFDF AFdA|BGdB AFGE|D2 D2 D4:|

